img/welcome-background.svg

<svg width="593" height="248" fill="none" xmlns="http://www.w3.org/2000/svg"><g clip-path="url(#a)"><mask id="b" style="mask-type:alpha" x="0" y="0" width="593" height="248"><path d="M593 0H0v248h593V0z" fill="#fff"/></mask><g mask="url(#b)"><g opacity=".44"><path opacity=".8" d="M405 329.5c90.851 0 164.5-73.649 164.5-164.5C569.5 74.15 495.851.5 405 .5S240.5 74.15 240.5 165c0 90.851 73.649 164.5 164.5 164.5z" stroke="#0055FE"/><path opacity=".8" d="M405 284c65.722 0 119-53.278 119-119 0-65.722-53.278-119-119-119-65.722 0-119 53.278-119 119 0 65.722 53.278 119 119 119z" stroke="#0055FE" stroke-width="2"/><path opacity=".24" d="M405 287c67.379 0 122-54.621 122-122 0-67.379-54.621-122-122-122-67.379 0-122 54.621-122 122 0 67.379 54.621 122 122 122z" stroke="url(#c)" stroke-width="8"/><path opacity=".6" d="M405 409.5c135.034 0 244.5-109.466 244.5-244.5S540.034-79.5 405-79.5 160.5 29.966 160.5 165 269.966 409.5 405 409.5z" stroke="#0055FE"/><path opacity=".4" d="M405 489.5c179.216 0 324.5-145.284 324.5-324.5S584.216-159.5 405-159.5 80.5-14.216 80.5 165 225.784 489.5 405 489.5z" stroke="#0055FE"/><path opacity=".2" d="M405 569.5c223.399 0 404.5-181.101 404.5-404.5 0-223.4-181.101-404.5-404.5-404.5S.5-58.4.5 165C.5 388.399 181.601 569.5 405 569.5z" stroke="#0055FE"/></g><path fill-rule="evenodd" clip-rule="evenodd" d="M1033.3 250.5c-.1 0-.2 0-.4.1-.1.1-.2.1-.3.2-.1.1-.1.2-.2.3v.4c0 .2.1.3.2.4.1.1.2.2.4.2h.3c.1 0 .2-.1.3-.2.1-.1.2-.2.2-.3 0-.1.1-.2.1-.3 0-.1 0-.2-.1-.3 0-.1-.1-.2-.2-.3-.1-.1-.2-.1-.3-.2.2.1.1 0 0 0zm-409.9 66.9c-.1 0-.2 0-.3.1-.1.1-.2.1-.3.2-.1.1-.1.2-.2.3v.4c0 .2.1.3.2.4.1.1.3.2.4.2.2 0 .3 0 .5-.1s.3-.2.4-.4c.1-.2.1-.3.1-.5s-.1-.3-.2-.5c-.1-.1-.2-.1-.3-.2-.1.1-.2.1-.3.1zm-965.7-619.1c.1-.1.2-.1.2-.2.1-.1.1-.2.1-.3v-.3c0-.1-.1-.2-.2-.3-.1-.2-.3-.3-.5-.3s-.4 0-.6.1c-.1.1-.2.1-.2.2-.1.1-.1.2-.1.3v.3c0 .1.1.2.2.2.1.2.3.3.5.3s.4.1.6 0zM257-103.6c-.1-.1-.2-.1-.2-.2-.1-.1-.1-.2-.1-.3v-.3c0-.1.1-.2.2-.2.1-.2.3-.3.5-.3s.4 0 .6.1c.1.1.2.1.2.2.1.1.1.2.1.3v.3c0 .1-.1.2-.2.2-.1.2-.3.3-.6.3-.1 0-.3 0-.5-.1zm1046.1 34.8c-.2-.1-.3-.2-.4-.4-.1-.2-.2-.4-.2-.6 0-.2 0-.4.1-.6.1-.2.2-.4.3-.5.3-.3.7-.6 1.1-.7.4-.1.9 0 1.3.2.3.2.5.4.6.7.1.3.1.6 0 .9-.1.2-.2.4-.3.5-.3.3-.7.6-1.1.7-.6.1-1.1 0-1.4-.2zm-1394.6 430c-.3 0-.6.1-.9.3-.3.2-.4.4-.5.7-.1.3-.1.6-.1.9.1.3.2.6.4.8.2.2.5.4.8.4.3.1.6 0 .9-.1.3-.1.5-.3.7-.6.2-.3.3-.6.3-.9 0-.2 0-.4-.1-.6-.1-.2-.2-.4-.4-.5-.1-.1-.3-.3-.5-.3-.2-.1-.4-.1-.6-.1zM-387.3 96c.1-.1.2-.1.2-.2.1-.1.1-.3.1-.4 0-.1-.1-.3-.2-.4-.1-.2-.3-.3-.5-.3s-.4 0-.6.1c-.1.1-.2.1-.2.2-.1.1-.1.3-.1.4 0 .1.1.3.2.4.1.2.3.3.5.3.2.1.5 0 .6-.1zm1654.7 626.2-.2-.2c-.1-.1-.1-.2-.1-.3v-.3c0-.1.1-.2.1-.3.1-.2.3-.3.6-.3.2 0 .4 0 .6.1.1.1.2.1.2.2.1.1.1.2.1.3v.3c0 .1-.1.2-.2.2-.1.2-.3.3-.5.3-.1.1-.4.1-.6 0zM-544.4 448.9c-.1-.2-.1-.4 0-.6 0-.2.1-.4.2-.6.1-.2.3-.3.4-.4.2-.1.4-.2.6-.2.4-.2.9-.2 1.3-.1s.8.4 1 .8c.1.2.1.4 0 .6 0 .2-.1.4-.2.6-.1.2-.3.3-.4.4-.2.1-.4.2-.6.2-.4.2-.9.2-1.3.1s-.8-.4-1-.8zm-63.7-320.6c.1.1.2.1.2.2.1.1.1.2.1.3v.3c0 .1-.1.2-.2.3l-.1-1.1zM176-438.9c.1-.1.2-.1.2-.2.1-.2.2-.4.1-.6 0-.1-.1-.2-.1-.3-.1-.2-.3-.3-.5-.4h-.5c-.1.1-.3.1-.4.3-.1.1-.1.2-.1.3v.3c0 .1.1.2.1.3.1.2.3.3.5.4.3 0 .5 0 .7-.1zm1079.8 16.7c-.1-.1-.2-.1-.2-.2-.1-.1-.1-.2-.1-.3v-.3c0-.1.1-.2.2-.2.1-.2.3-.3.5-.3s.4 0 .6.1c.1.1.2.1.2.2s.1.2.1.3v.3c0 .1-.1.2-.2.2-.1.2-.3.3-.5.3s-.5 0-.6-.1zM232.4 721.1c-.2 0-.4-.1-.6-.2-.2-.1-.3-.3-.3-.6v-.3c0-.1.1-.2.2-.3.1-.1.2-.1.3-.2h.3c.2 0 .4.1.6.2.2.1.3.3.3.6v.3c0 .1-.1.2-.2.3-.1.1-.2.1-.3.2h-.3z" fill="#fff"/><path d="M632.9 155.8c0 64.3-52.2 116.5-116.5 116.5s-116.5-52.2-116.5-116.5S452.1 39.3 516.4 39.3s116.5 52.1 116.5 116.5z" fill="#0055FE" opacity=".24"/><path d="M170 110c12.15 0 22-9.85 22-22s-9.85-22-22-22-22 9.85-22 22 9.85 22 22 22z" fill="url(#d)"/><path d="M295 165c0-60.8 49.2-110 110-110s110 49.2 110 110-49.2 110-110 110-110-49.2-110-110z" fill="#0055FE"/><path d="M387.386 219.003c9.915 9.333 25.37 9.328 35.286-.005l14.49-13.647v-36.648l-38.636 36.366v-9.02a7.423 7.423 0 0 0-2.334-5.404L350 147.163v33.44c0 2.044.844 4.001 2.334 5.404l35.052 32.991v.005z" fill="#fff"/><path d="m404.081 153.525-11.042 11.055a1.3 1.3 0 0 0 0 1.837l11.042 11.055a1.295 1.295 0 0 0 1.835 0l11.042-11.055a1.3 1.3 0 0 0 0-1.837l-11.042-11.055a1.295 1.295 0 0 0-1.835 0z" fill="#fff"/><path d="m457.671 144.988-35.057-32.991c-9.915-9.333-25.375-9.328-35.286.005l-14.49 13.647v36.653l38.636-36.366v9.02c0 2.045.844 4.006 2.334 5.404L460 183.837v-33.445a7.423 7.423 0 0 0-2.334-5.404h.005z" fill="#fff"/><path d="M405 275c60.751 0 110-49.249 110-110S465.751 55 405 55s-110 49.249-110 110 49.249 110 110 110z" fill="url(#e)"/><path d="M405 269.5c57.714 0 104.5-46.786 104.5-104.5S462.714 60.5 405 60.5 300.5 107.286 300.5 165 347.286 269.5 405 269.5z" stroke="url(#f)" stroke-width="11"/><path d="M405 269.5c57.714 0 104.5-46.786 104.5-104.5S462.714 60.5 405 60.5 300.5 107.286 300.5 165 347.286 269.5 405 269.5z" stroke="url(#g)" stroke-width="11"/><path d="M405 269.5c57.714 0 104.5-46.786 104.5-104.5S462.714 60.5 405 60.5 300.5 107.286 300.5 165 347.286 269.5 405 269.5z" stroke="url(#h)" stroke-width="11" opacity=".12"/><path d="M405 269.5c57.714 0 104.5-46.786 104.5-104.5S462.714 60.5 405 60.5 300.5 107.286 300.5 165 347.286 269.5 405 269.5z" stroke="url(#i)" stroke-width="11" opacity=".12"/><path d="M405 275c60.751 0 110-49.249 110-110S465.751 55 405 55s-110 49.249-110 110 49.249 110 110 110z" fill="url(#j)" opacity=".16"/><path d="M562 11c6.075 0 11-4.925 11-11s-4.925-11-11-11-11 4.925-11 11 4.925 11 11 11z" fill="#DCEAF9"/><path d="M507.7 107.9a4 4 0 1 0 0-8 4 4 0 0 0 0 8z" fill="url(#k)"/><path d="M301.5 226.9a4 4 0 1 0 0-8 4 4 0 0 0 0 8z" fill="url(#l)"/><path d="M346.6 64.8a4 4 0 1 0 0-8 4 4 0 0 0 0 8z" fill="url(#m)"/></g></g><defs><radialGradient id="i" cx="0" cy="0" r="1" gradientTransform="rotate(135 168.317 166.353) scale(261.63)"><stop offset=".295" stop-color="#9AC3ED"/><stop offset="1" stop-color="#98C1EC" stop-opacity="0"/></radialGradient><radialGradient id="e" cx="0" cy="0" r="1" gradientTransform="rotate(45 81.168 383.619) scale(261.63)"><stop offset=".295" stop-color="#9AC3ED"/><stop offset="1" stop-color="#98C1EC" stop-opacity="0"/></radialGradient><radialGradient id="f" cx="0" cy="0" r="1" gradientTransform="rotate(45 81.168 383.619) scale(261.63)"><stop offset=".295" stop-color="#9AC3ED"/><stop offset="1" stop-color="#98C1EC" stop-opacity="0"/></radialGradient><radialGradient id="g" cx="0" cy="0" r="1" gradientTransform="rotate(45 81.168 383.619) scale(261.63)"><stop offset=".295" stop-color="#9AC3ED"/><stop offset="1" stop-color="#98C1EC" stop-opacity="0"/></radialGradient><radialGradient id="h" cx="0" cy="0" r="1" gradientTransform="rotate(135 168.317 166.353) scale(261.63)"><stop offset=".295" stop-color="#9AC3ED"/><stop offset="1" stop-color="#98C1EC" stop-opacity="0"/></radialGradient><radialGradient id="d" cx="0" cy="0" r="1" gradientTransform="matrix(37 37 -37 37 148 65.998)"><stop offset=".295" stop-color="#9AC3ED"/><stop offset="1" stop-color="#98C1EC" stop-opacity="0"/></radialGradient><radialGradient id="j" cx="0" cy="0" r="1" gradientTransform="rotate(45 81.168 383.619) scale(261.63)"><stop offset=".295" stop-color="#9AC3ED"/><stop offset="1" stop-color="#98C1EC" stop-opacity="0"/></radialGradient><radialGradient id="k" cx="0" cy="0" r="1" gradientTransform="rotate(15 -137.974 1958.833) scale(11.3137)"><stop stop-color="#fff"/><stop offset="1" stop-color="#78AFE7"/></radialGradient><radialGradient id="l" cx="0" cy="0" r="1" gradientTransform="rotate(15 -692.847 1234.867) scale(11.3137)"><stop stop-color="#fff"/><stop offset="1" stop-color="#78AFE7"/></radialGradient><radialGradient id="m" cx="0" cy="0" r="1" gradientTransform="rotate(15 -54.575 1325.36) scale(11.3137)"><stop stop-color="#fff"/><stop offset="1" stop-color="#78AFE7"/></radialGradient><linearGradient id="c" x1="464.014" y1="267.172" x2="346.014" y2="62.796"><stop stop-color="#0055FE"/><stop offset="1" stop-color="#0055FE" stop-opacity="0"/></linearGradient><clipPath id="a"><path fill="#fff" d="M0 0h593v248H0z"/></clipPath></defs></svg>

<svg width="593" height="248" viewBox="0 0 593 248" fill="none" xmlns="http://www.w3.org/2000/svg">
<g clip-path="url(#clip0_308_888)">
<mask id="mask0_308_888" style="mask-type:alpha" x="0" y="0" width="593" height="248">
<path d="M593 0H0V248H593V0Z" fill="white"/>
</mask>
<g mask="url(#mask0_308_888)">
<g opacity="0.44">
<path opacity="0.8" d="M405 329.5C495.851 329.5 569.5 255.851 569.5 165C569.5 74.1491 495.851 0.499969 405 0.499969C314.149 0.499969 240.5 74.1491 240.5 165C240.5 255.851 314.149 329.5 405 329.5Z" stroke="#0055FE"/>
<path opacity="0.8" d="M405 284C470.722 284 524 230.722 524 165C524 99.2781 470.722 46 405 46C339.278 46 286 99.2781 286 165C286 230.722 339.278 284 405 284Z" stroke="#0055FE" stroke-width="2"/>
<path opacity="0.24" d="M405 287C472.379 287 527 232.379 527 165C527 97.6212 472.379 43 405 43C337.621 43 283 97.6212 283 165C283 232.379 337.621 287 405 287Z" stroke="url(#paint0_linear_308_888)" stroke-width="8"/>
<path opacity="0.6" d="M405 409.5C540.034 409.5 649.5 300.034 649.5 165C649.5 29.9664 540.034 -79.5 405 -79.5C269.966 -79.5 160.5 29.9664 160.5 165C160.5 300.034 269.966 409.5 405 409.5Z" stroke="#0055FE"/>
<path opacity="0.4" d="M405 489.5C584.216 489.5 729.5 344.216 729.5 165C729.5 -14.2164 584.216 -159.5 405 -159.5C225.784 -159.5 80.5 -14.2164 80.5 165C80.5 344.216 225.784 489.5 405 489.5Z" stroke="#0055FE"/>
<path opacity="0.2" d="M405 569.5C628.399 569.5 809.5 388.399 809.5 165C809.5 -58.3992 628.399 -239.5 405 -239.5C181.601 -239.5 0.5 -58.3992 0.5 165C0.5 388.399 181.601 569.5 405 569.5Z" stroke="#0055FE"/>
</g>
<path fill-rule="evenodd" clip-rule="evenodd" d="M1033.3 250.5C1033.2 250.5 1033.1 250.5 1032.9 250.6C1032.8 250.7 1032.7 250.7 1032.6 250.8C1032.5 250.9 1032.5 251 1032.4 251.1C1032.4 251.2 1032.4 251.3 1032.4 251.5C1032.4 251.7 1032.5 251.8 1032.6 251.9C1032.7 252 1032.8 252.1 1033 252.1C1033.1 252.1 1033.2 252.1 1033.3 252.1C1033.4 252.1 1033.5 252 1033.6 251.9C1033.7 251.8 1033.8 251.7 1033.8 251.6C1033.8 251.5 1033.9 251.4 1033.9 251.3C1033.9 251.2 1033.9 251.1 1033.8 251C1033.8 250.9 1033.7 250.8 1033.6 250.7C1033.5 250.6 1033.4 250.6 1033.3 250.5C1033.5 250.6 1033.4 250.5 1033.3 250.5ZM623.4 317.4C623.3 317.4 623.2 317.4 623.1 317.5C623 317.6 622.9 317.6 622.8 317.7C622.7 317.8 622.7 317.9 622.6 318C622.6 318.1 622.6 318.2 622.6 318.4C622.6 318.6 622.7 318.7 622.8 318.8C622.9 318.9 623.1 319 623.2 319C623.4 319 623.5 319 623.7 318.9C623.9 318.8 624 318.7 624.1 318.5C624.2 318.3 624.2 318.2 624.2 318C624.2 317.8 624.1 317.7 624 317.5C623.9 317.4 623.8 317.4 623.7 317.3C623.6 317.4 623.5 317.4 623.4 317.4ZM-342.3 -301.7C-342.2 -301.8 -342.1 -301.8 -342.1 -301.9C-342 -302 -342 -302.1 -342 -302.2C-342 -302.3 -342 -302.4 -342 -302.5C-342 -302.6 -342.1 -302.7 -342.2 -302.8C-342.3 -303 -342.5 -303.1 -342.7 -303.1C-342.9 -303.1 -343.1 -303.1 -343.3 -303C-343.4 -302.9 -343.5 -302.9 -343.5 -302.8C-343.6 -302.7 -343.6 -302.6 -343.6 -302.5C-343.6 -302.4 -343.6 -302.3 -343.6 -302.2C-343.6 -302.1 -343.5 -302 -343.4 -302C-343.3 -301.8 -343.1 -301.7 -342.9 -301.7C-342.7 -301.7 -342.5 -301.6 -342.3 -301.7ZM257 -103.6C256.9 -103.7 256.8 -103.7 256.8 -103.8C256.7 -103.9 256.7 -104 256.7 -104.1C256.7 -104.2 256.7 -104.3 256.7 -104.4C256.7 -104.5 256.8 -104.6 256.9 -104.6C257 -104.8 257.2 -104.9 257.4 -104.9C257.6 -104.9 257.8 -104.9 258 -104.8C258.1 -104.7 258.2 -104.7 258.2 -104.6C258.3 -104.5 258.3 -104.4 258.3 -104.3C258.3 -104.2 258.3 -104.1 258.3 -104C258.3 -103.9 258.2 -103.8 258.1 -103.8C258 -103.6 257.8 -103.5 257.5 -103.5C257.4 -103.5 257.2 -103.5 257 -103.6ZM1303.1 -68.8C1302.9 -68.9 1302.8 -69 1302.7 -69.2C1302.6 -69.4 1302.5 -69.6 1302.5 -69.8C1302.5 -70 1302.5 -70.2 1302.6 -70.4C1302.7 -70.6 1302.8 -70.8 1302.9 -70.9C1303.2 -71.2 1303.6 -71.5 1304 -71.6C1304.4 -71.7 1304.9 -71.6 1305.3 -71.4C1305.6 -71.2 1305.8 -71 1305.9 -70.7C1306 -70.4 1306 -70.1 1305.9 -69.8C1305.8 -69.6 1305.7 -69.4 1305.6 -69.3C1305.3 -69 1304.9 -68.7 1304.5 -68.6C1303.9 -68.5 1303.4 -68.6 1303.1 -68.8ZM-91.5 361.2C-91.8 361.2 -92.1 361.3 -92.4 361.5C-92.7 361.7 -92.8 361.9 -92.9 362.2C-93 362.5 -93 362.8 -93 363.1C-92.9 363.4 -92.8 363.7 -92.6 363.9C-92.4 364.1 -92.1 364.3 -91.8 364.3C-91.5 364.4 -91.2 364.3 -90.9 364.2C-90.6 364.1 -90.4 363.9 -90.2 363.6C-90 363.3 -89.9 363 -89.9 362.7C-89.9 362.5 -89.9 362.3 -90 362.1C-90.1 361.9 -90.2 361.7 -90.4 361.6C-90.5 361.5 -90.7 361.3 -90.9 361.3C-91.1 361.2 -91.3 361.2 -91.5 361.2ZM-387.3 96C-387.2 95.9 -387.1 95.9 -387.1 95.8C-387 95.7 -387 95.5 -387 95.4C-387 95.3 -387.1 95.1 -387.2 95C-387.3 94.8 -387.5 94.7 -387.7 94.7C-387.9 94.7 -388.1 94.7 -388.3 94.8C-388.4 94.9 -388.5 94.9 -388.5 95C-388.6 95.1 -388.6 95.3 -388.6 95.4C-388.6 95.5 -388.5 95.7 -388.4 95.8C-388.3 96 -388.1 96.1 -387.9 96.1C-387.7 96.2 -387.4 96.1 -387.3 96ZM1267.4 722.2C1267.3 722.1 1267.3 722.1 1267.2 722C1267.1 721.9 1267.1 721.8 1267.1 721.7C1267.1 721.6 1267.1 721.5 1267.1 721.4C1267.1 721.3 1267.2 721.2 1267.2 721.1C1267.3 720.9 1267.5 720.8 1267.8 720.8C1268 720.8 1268.2 720.8 1268.4 720.9C1268.5 721 1268.6 721 1268.6 721.1C1268.7 721.2 1268.7 721.3 1268.7 721.4C1268.7 721.5 1268.7 721.6 1268.7 721.7C1268.7 721.8 1268.6 721.9 1268.5 721.9C1268.4 722.1 1268.2 722.2 1268 722.2C1267.9 722.3 1267.6 722.3 1267.4 722.2ZM-544.4 448.9C-544.5 448.7 -544.5 448.5 -544.4 448.3C-544.4 448.1 -544.3 447.9 -544.2 447.7C-544.1 447.5 -543.9 447.4 -543.8 447.3C-543.6 447.2 -543.4 447.1 -543.2 447.1C-542.8 446.9 -542.3 446.9 -541.9 447C-541.5 447.1 -541.1 447.4 -540.9 447.8C-540.8 448 -540.8 448.2 -540.9 448.4C-540.9 448.6 -541 448.8 -541.1 449C-541.2 449.2 -541.4 449.3 -541.5 449.4C-541.7 449.5 -541.9 449.6 -542.1 449.6C-542.5 449.8 -543 449.8 -543.4 449.7C-543.8 449.6 -544.2 449.3 -544.4 448.9ZM-608.1 128.3C-608 128.4 -607.9 128.4 -607.9 128.5C-607.8 128.6 -607.8 128.7 -607.8 128.8C-607.8 128.9 -607.8 129 -607.8 129.1C-607.8 129.2 -607.9 129.3 -608 129.4L-608.1 128.3ZM176 -438.9C176.1 -439 176.2 -439 176.2 -439.1C176.3 -439.3 176.4 -439.5 176.3 -439.7C176.3 -439.8 176.2 -439.9 176.2 -440C176.1 -440.2 175.9 -440.3 175.7 -440.4C175.5 -440.4 175.4 -440.4 175.2 -440.4C175.1 -440.3 174.9 -440.3 174.8 -440.1C174.7 -440 174.7 -439.9 174.7 -439.8C174.7 -439.7 174.7 -439.6 174.7 -439.5C174.7 -439.4 174.8 -439.3 174.8 -439.2C174.9 -439 175.1 -438.9 175.3 -438.8C175.6 -438.8 175.8 -438.8 176 -438.9ZM1255.8 -422.2C1255.7 -422.3 1255.6 -422.3 1255.6 -422.4C1255.5 -422.5 1255.5 -422.6 1255.5 -422.7C1255.5 -422.8 1255.5 -422.9 1255.5 -423C1255.5 -423.1 1255.6 -423.2 1255.7 -423.2C1255.8 -423.4 1256 -423.5 1256.2 -423.5C1256.4 -423.5 1256.6 -423.5 1256.8 -423.4C1256.9 -423.3 1257 -423.3 1257 -423.2C1257 -423.1 1257.1 -423 1257.1 -422.9C1257.1 -422.8 1257.1 -422.7 1257.1 -422.6C1257.1 -422.5 1257 -422.4 1256.9 -422.4C1256.8 -422.2 1256.6 -422.1 1256.4 -422.1C1256.2 -422.1 1255.9 -422.1 1255.8 -422.2ZM232.4 721.1C232.2 721.1 232 721 231.8 720.9C231.6 720.8 231.5 720.6 231.5 720.3C231.5 720.2 231.5 720.1 231.5 720C231.5 719.9 231.6 719.8 231.7 719.7C231.8 719.6 231.9 719.6 232 719.5C232.1 719.5 232.2 719.5 232.3 719.5C232.5 719.5 232.7 719.6 232.9 719.7C233.1 719.8 233.2 720 233.2 720.3C233.2 720.4 233.2 720.5 233.2 720.6C233.2 720.7 233.1 720.8 233 720.9C232.9 721 232.8 721 232.7 721.1C232.6 721.1 232.5 721.1 232.4 721.1Z" fill="white"/>
<g opacity="0.24">
<path d="M632.9 155.8C632.9 220.1 580.7 272.3 516.4 272.3C452.1 272.3 399.9 220.1 399.9 155.8C399.9 91.5 452.1 39.3 516.4 39.3C580.7 39.3 632.9 91.4 632.9 155.8Z" fill="#0055FE"/>
</g>
<path d="M170 110C182.15 110 192 100.15 192 88C192 75.8497 182.15 66 170 66C157.85 66 148 75.8497 148 88C148 100.15 157.85 110 170 110Z" fill="url(#paint1_radial_308_888)"/>
<path d="M295 165C295 104.2 344.2 55 405 55C465.8 55 515 104.2 515 165C515 225.8 465.8 275 405 275C344.2 275 295 225.8 295 165Z" fill="#0055FE"/>
<path d="M387.386 219.003C397.301 228.336 412.756 228.331 422.672 218.998L437.162 205.351V168.703L398.526 205.069V196.049C398.526 194.004 397.682 192.048 396.192 190.645L350 147.163V180.603C350 182.647 350.844 184.604 352.334 186.007L387.386 218.998V219.003Z" fill="white"/>
<path d="M404.081 153.525L393.039 164.58C392.532 165.087 392.532 165.91 393.039 166.417L404.081 177.472C404.588 177.98 405.409 177.98 405.916 177.472L416.958 166.417C417.465 165.91 417.465 165.087 416.958 164.58L405.916 153.525C405.409 153.017 404.588 153.017 404.081 153.525Z" fill="white"/>
<path d="M457.671 144.988L422.614 111.997C412.699 102.664 397.239 102.669 387.328 112.002L372.838 125.649V162.302L411.474 125.936V134.956C411.474 137.001 412.318 138.962 413.808 140.36L460 183.837V150.392C460 148.347 459.156 146.391 457.666 144.988H457.671Z" fill="white"/>
<path d="M405 275C465.751 275 515 225.751 515 165C515 104.249 465.751 55 405 55C344.249 55 295 104.249 295 165C295 225.751 344.249 275 405 275Z" fill="url(#paint2_radial_308_888)"/>
<path d="M405 269.5C462.714 269.5 509.5 222.714 509.5 165C509.5 107.286 462.714 60.5 405 60.5C347.286 60.5 300.5 107.286 300.5 165C300.5 222.714 347.286 269.5 405 269.5Z" stroke="url(#paint3_radial_308_888)" stroke-width="11"/>
<path d="M405 269.5C462.714 269.5 509.5 222.714 509.5 165C509.5 107.286 462.714 60.5 405 60.5C347.286 60.5 300.5 107.286 300.5 165C300.5 222.714 347.286 269.5 405 269.5Z" stroke="url(#paint4_radial_308_888)" stroke-width="11"/>
<g opacity="0.12">
<path d="M405 269.5C462.714 269.5 509.5 222.714 509.5 165C509.5 107.286 462.714 60.5 405 60.5C347.286 60.5 300.5 107.286 300.5 165C300.5 222.714 347.286 269.5 405 269.5Z" stroke="url(#paint5_radial_308_888)" stroke-width="11"/>
</g>
<g opacity="0.12">
<path d="M405 269.5C462.714 269.5 509.5 222.714 509.5 165C509.5 107.286 462.714 60.5 405 60.5C347.286 60.5 300.5 107.286 300.5 165C300.5 222.714 347.286 269.5 405 269.5Z" stroke="url(#paint6_radial_308_888)" stroke-width="11"/>
</g>
<g opacity="0.16">
<path d="M405 275C465.751 275 515 225.751 515 165C515 104.249 465.751 55 405 55C344.249 55 295 104.249 295 165C295 225.751 344.249 275 405 275Z" fill="url(#paint7_radial_308_888)"/>
</g>
<path d="M562 11C568.075 11 573 6.0751 573 -3.05176e-05C573 -6.07516 568.075 -11 562 -11C555.925 -11 551 -6.07516 551 -3.05176e-05C551 6.0751 555.925 11 562 11Z" fill="#DCEAF9"/>
<path d="M507.7 107.9C509.909 107.9 511.7 106.109 511.7 103.9C511.7 101.691 509.909 99.9 507.7 99.9C505.491 99.9 503.7 101.691 503.7 103.9C503.7 106.109 505.491 107.9 507.7 107.9Z" fill="url(#paint8_radial_308_888)"/>
<path d="M301.5 226.9C303.709 226.9 305.5 225.109 305.5 222.9C305.5 220.691 303.709 218.9 301.5 218.9C299.291 218.9 297.5 220.691 297.5 222.9C297.5 225.109 299.291 226.9 301.5 226.9Z" fill="url(#paint9_radial_308_888)"/>
<path d="M346.6 64.8C348.809 64.8 350.6 63.0091 350.6 60.8C350.6 58.5908 348.809 56.8 346.6 56.8C344.391 56.8 342.6 58.5908 342.6 60.8C342.6 63.0091 344.391 64.8 346.6 64.8Z" fill="url(#paint10_radial_308_888)"/>
</g>
</g>
<defs>
<linearGradient id="paint0_linear_308_888" x1="464.014" y1="267.172" x2="346.014" y2="62.7958" >
<stop stop-color="#0055FE"/>
<stop offset="1" stop-color="#0055FE" stop-opacity="0"/>
</linearGradient>
<radialGradient id="paint1_radial_308_888" cx="0" cy="0" r="1"  gradientTransform="translate(148 65.9983) rotate(45) scale(52.3259)">
<stop offset="0.2953" stop-color="#9AC3ED"/>
<stop offset="1" stop-color="#98C1EC" stop-opacity="0"/>
</radialGradient>
<radialGradient id="paint2_radial_308_888" cx="0" cy="0" r="1"  gradientTransform="translate(295.033 54.9652) rotate(45) scale(261.63)">
<stop offset="0.2953" stop-color="#9AC3ED"/>
<stop offset="1" stop-color="#98C1EC" stop-opacity="0"/>
</radialGradient>
<radialGradient id="paint3_radial_308_888" cx="0" cy="0" r="1"  gradientTransform="translate(295.033 54.9652) rotate(45) scale(261.63)">
<stop offset="0.2953" stop-color="#9AC3ED"/>
<stop offset="1" stop-color="#98C1EC" stop-opacity="0"/>
</radialGradient>
<radialGradient id="paint4_radial_308_888" cx="0" cy="0" r="1"  gradientTransform="translate(295.033 54.9652) rotate(45) scale(261.63)">
<stop offset="0.2953" stop-color="#9AC3ED"/>
<stop offset="1" stop-color="#98C1EC" stop-opacity="0"/>
</radialGradient>
<radialGradient id="paint5_radial_308_888" cx="0" cy="0" r="1"  gradientTransform="translate(404.965 164.965) rotate(135) scale(261.63)">
<stop offset="0.2953" stop-color="#9AC3ED"/>
<stop offset="1" stop-color="#98C1EC" stop-opacity="0"/>
</radialGradient>
<radialGradient id="paint6_radial_308_888" cx="0" cy="0" r="1"  gradientTransform="translate(404.965 164.965) rotate(135) scale(261.63)">
<stop offset="0.2953" stop-color="#9AC3ED"/>
<stop offset="1" stop-color="#98C1EC" stop-opacity="0"/>
</radialGradient>
<radialGradient id="paint7_radial_308_888" cx="0" cy="0" r="1"  gradientTransform="translate(295.033 54.9652) rotate(45) scale(261.63)">
<stop offset="0.2953" stop-color="#9AC3ED"/>
<stop offset="1" stop-color="#98C1EC" stop-opacity="0"/>
</radialGradient>
<radialGradient id="paint8_radial_308_888" cx="0" cy="0" r="1"  gradientTransform="translate(502.282 102.456) rotate(15) scale(11.3137)">
<stop stop-color="white"/>
<stop offset="1" stop-color="#78AFE7"/>
</radialGradient>
<radialGradient id="paint9_radial_308_888" cx="0" cy="0" r="1"  gradientTransform="translate(295.999 221.399) rotate(15) scale(11.3137)">
<stop stop-color="white"/>
<stop offset="1" stop-color="#78AFE7"/>
</radialGradient>
<radialGradient id="paint10_radial_308_888" cx="0" cy="0" r="1"  gradientTransform="translate(341.169 59.2856) rotate(15) scale(11.3137 11.3137)">
<stop stop-color="white"/>
<stop offset="1" stop-color="#78AFE7"/>
</radialGradient>
<clipPath id="clip0_308_888">
<rect width="593" height="248" fill="white"/>
</clipPath>
</defs>
</svg>
